icons/breezeDark/actions/16/thermal-path.svg

<svg viewBox="0 0 16 16" xmlns="http://www.w3.org/2000/svg"><path d="m7 2.0898438a6 6 0 0 0 -4.9140625 4.9101562h1.015625a5 5 0 0 1 3.8984375-3.8925781zm2 .0019531v1.0097656a5 5 0 0 1 3.894531 3.8984375h1.015625a6 6 0 0 0 -4.910156-4.9082031zm-6.9101562 6.9082031a6 6 0 0 0 4.9101562 4.908203v-1.009765a5 5 0 0 1 -3.8945312-3.898438zm10.8085942 0a5 5 0 0 1 -3.898438 3.892578v1.017578a6 6 0 0 0 4.914062-4.910156z" fill="#da4453"/><g fill="#c0c0c0"><path d="m11 8a3 3 0 0 1 -3 3 3 3 0 0 1 -3-3 3 3 0 0 1 3-3 3 3 0 0 1 3 3z" fill-opacity=".5"/><path d="m8 4a4 4 0 0 0 -4 4 4 4 0 0 0 4 4 4 4 0 0 0 4-4 4 4 0 0 0 -4-4zm0 1a3 3 0 0 1 3 3 3 3 0 0 1 -3 3 3 3 0 0 1 -3-3 3 3 0 0 1 3-3z"/></g></svg>

<?xml version="1.0" encoding="UTF-8" standalone="no"?>
<svg
   xmlns:dc="http://purl.org/dc/elements/1.1/"
   xmlns:cc="http://creativecommons.org/ns#"
   xmlns:rdf="http://www.w3.org/1999/02/22-rdf-syntax-ns#"
   xmlns:svg="http://www.w3.org/2000/svg"
   xmlns="http://www.w3.org/2000/svg"
   xmlns:sodipodi="http://sodipodi.sourceforge.net/DTD/sodipodi-0.dtd"
   xmlns:inkscape="http://www.inkscape.org/namespaces/inkscape"
   viewBox="0 0 16 16"
   version="1.1"
   id="svg8"
   sodipodi:docname="thermal.svg"
   inkscape:version="0.92.4 (5da689c313, 2019-01-14)">
  <metadata
     id="metadata12">
    <rdf:RDF>
      <cc:Work
         rdf:about="">
        <dc:format>image/svg+xml</dc:format>
        <dc:type
           rdf:resource="http://purl.org/dc/dcmitype/StillImage" />
        <dc:title></dc:title>
      </cc:Work>
    </rdf:RDF>
  </metadata>
  <sodipodi:namedview
     pagecolor="#ffffff"
     bordercolor="#666666"
     borderopacity="1"
     objecttolerance="10"
     gridtolerance="10"
     guidetolerance="10"
     inkscape:pageopacity="0"
     inkscape:pageshadow="2"
     inkscape:window-width="2050"
     inkscape:window-height="1513"
     id="namedview10"
     showgrid="true"
     inkscape:snap-center="true"
     inkscape:snap-object-midpoints="true"
     inkscape:zoom="59"
     inkscape:cx="6.9306631"
     inkscape:cy="8.1270513"
     inkscape:window-x="451"
     inkscape:window-y="225"
     inkscape:window-maximized="0"
     inkscape:current-layer="svg8">
    <inkscape:grid
       type="xygrid"
       id="grid4526"
       empspacing="8" />
  </sodipodi:namedview>
  <defs
     id="defs3051">
    <style
       type="text/css"
       id="current-color-scheme">
      .ColorScheme-Text {
        color:#c0c0c0;
      }
      </style>
  </defs>
  <path
     style="fill:#da4453;fill-opacity:1;stroke:none;stroke-width:4.68545485"
     d="M 7 2.0898438 A 6 6 0 0 0 2.0859375 7 L 3.1015625 7 A 5 5 0 0 1 7 3.1074219 L 7 2.0898438 z M 9 2.0917969 L 9 3.1015625 A 5 5 0 0 1 12.894531 7 L 13.910156 7 A 6 6 0 0 0 9 2.0917969 z M 2.0898438 9 A 6 6 0 0 0 7 13.908203 L 7 12.898438 A 5 5 0 0 1 3.1054688 9 L 2.0898438 9 z M 12.898438 9 A 5 5 0 0 1 9 12.892578 L 9 13.910156 A 6 6 0 0 0 13.914062 9 L 12.898438 9 z "
     id="path4528" />
  <path
     style="color:#c0c0c0;fill:currentColor;fill-opacity:0.5;stroke:none;stroke-width:0.59999996"
     d="M 11,8 A 3,3 0 0 1 8,11 3,3 0 0 1 5,8 3,3 0 0 1 8,5 3,3 0 0 1 11,8 Z"
     class="ColorScheme-Text"
     id="path6"
     inkscape:connector-curvature="0" />
  <path
     style="fill:#c0c0c0;fill-opacity:1;stroke:none;stroke-width:1.90810275"
     d="M 8 4 A 4 4 0 0 0 4 8 A 4 4 0 0 0 8 12 A 4 4 0 0 0 12 8 A 4 4 0 0 0 8 4 z M 8 5 A 3 3 0 0 1 11 8 A 3 3 0 0 1 8 11 A 3 3 0 0 1 5 8 A 3 3 0 0 1 8 5 z "
     id="path4530" />
</svg>
